X:3
T:O'er the Bows to Ballindalloch
R:Strathspey
C:Traditional, Arr. STPB
M:4/4
L:1/8
K:D
[|: a2 {GdG}a>f {gef}e>d {g}e<f | a2 {GdG}a>f {gef}e>d {gBG}B2 | a2 {GdG}a>f {gef}e>d {g}e<f | {g}A>B {Gdc}d>f {g}B<d {g}A2 :|]
[|: {g}A>d {gfg}f>d {gef}e>d {gfg}f>d | {g}A>d {gfg}f>d {gef}e>d {gBG}B2 |1 {g}A>d {gfg}f>d {gef}e>d {gfg}f>d | {g}A>B {Gdc}d>f {g}B<d {g}A2 :|]
|2 a2 {GdG}a>f {gef}e>d {g}e<f | {g}A>B {Gdc}d>f {g}B<d {g}A2 |]
